!!!Genre:	Shtok
!!!Mode:	Minor
!!!Listening/dance:	dance
!!!One_Mode:	no
**kern
*I"P1
*clefG2
*k[b-e-]
*g:
*M2/4
*>A
8d
=1
8.b-L
16ak
8g
8b-J
=2
8aL
8f#XJ
4d
=3
4g
4a
=4
(8qcc/
4.b-)
*>bM
*B-:
!LO:TX:a:i:t=Bb-major
8b-
=5
16ccLL
16dd
16cc
16b-JJ
(16qqa/LL
16qqb-/JJ
16aLL)
16f
16a
16ccJJ
=6
8b-L
8gJ
4f
=7
4b-
4cc
=8
4.dd
*>eM
*g:
!LO:TX:a:i:t=G-minor
8dd
=9
8ee-L
16ee-L
16ddJJ
8ccL
8b-J
=10
8aL
8g
8f#X
8e-J
=11
4d
(8.ee-L
16ccJk)
=12
4.dd
8dd
=13
16ee-LL
16ff
16ee-
16ddJJ
8ccTL
8b-J
=14
8atL
8g
8f#Xt
8e-J
=15
4d
16b-LL
16a
16g
16f#XJJ
=16
(8qa/
4.g)
==
*-
